build/img/weber.svg

<svg width="709" height="184" viewBox="0 0 709 184" fill="none" xmlns="http://www.w3.org/2000/svg">
<mask id="mask0_3067_16394" style="mask-type:alpha" maskUnits="userSpaceOnUse" x="0" y="0" width="709" height="184">
<path d="M0 0H25.7321L62.7863 142.535L104.987 0H126.602L169.575 142.535L206.886 0H231.589L183.213 181.408H159.024L115.28 38.8732L72.5645 181.408H48.3764L0 0Z" fill="white"/>
<path d="M288.18 184C279.431 184 271.111 182.618 263.219 179.854C255.328 177.089 248.381 172.856 242.376 167.155C236.372 161.281 231.569 153.938 227.966 145.127C224.364 136.316 222.563 125.949 222.563 114.028V108.845C222.563 97.4423 224.278 87.5944 227.709 79.3014C231.14 70.8357 235.686 63.8385 241.347 58.3099C247.18 52.6085 253.87 48.3756 261.418 45.6113C269.138 42.847 277.2 41.4648 285.606 41.4648C305.677 41.4648 321.202 46.9934 332.181 58.0507C343.16 69.108 348.65 84.7437 348.65 104.958V119.47H245.207C245.207 127.591 246.493 134.415 249.067 139.944C251.64 145.472 254.985 149.964 259.102 153.42C263.219 156.875 267.765 159.38 272.74 160.935C277.887 162.49 283.033 163.268 288.18 163.268C298.472 163.268 306.364 161.54 311.853 158.085C317.514 154.629 321.545 149.878 323.947 143.831H346.077C344.704 150.396 342.217 156.184 338.614 161.194C335.183 166.205 330.895 170.438 325.748 173.893C320.773 177.176 315.027 179.681 308.508 181.408C302.161 183.136 295.385 184 288.18 184ZM286.893 62.1972C281.575 62.1972 276.429 62.9747 271.454 64.5296C266.479 65.9117 262.019 68.2441 258.073 71.5268C254.299 74.6366 251.211 78.6103 248.809 83.4479C246.408 88.2855 245.207 94.0732 245.207 100.811H327.292C327.121 93.7277 325.92 87.7671 323.69 82.9296C321.631 77.9193 318.801 73.9455 315.198 71.0085C311.596 67.8986 307.307 65.6526 302.332 64.2704C297.529 62.8883 292.382 62.1972 286.893 62.1972Z" fill="white"/>
<path d="M432.299 184C420.634 184 410.513 181.408 401.936 176.225C393.358 170.869 387.354 163.959 383.923 155.493V181.408H362.823V0H385.467V68.6761C389.413 60.2103 395.417 53.5587 403.479 48.7211C411.714 43.8836 421.32 41.4648 432.299 41.4648C449.283 41.4648 462.921 47.1662 473.213 58.569C483.678 69.7991 488.91 86.5578 488.91 108.845V114.028C488.91 125.777 487.538 136.056 484.793 144.868C482.048 153.506 478.188 160.762 473.213 166.637C468.239 172.338 462.234 176.657 455.201 179.594C448.339 182.531 440.705 184 432.299 184ZM427.153 163.786C432.643 163.786 437.789 162.749 442.592 160.676C447.396 158.43 451.513 155.234 454.944 151.087C458.546 146.941 461.291 141.758 463.178 135.538C465.236 129.318 466.266 122.148 466.266 114.028V108.845C466.266 101.416 465.236 94.7643 463.178 88.8901C461.291 83.016 458.546 78.092 454.944 74.1183C451.513 69.9718 447.396 66.862 442.592 64.7887C437.789 62.7155 432.643 61.6789 427.153 61.6789C420.977 61.6789 415.316 62.7155 410.17 64.7887C405.023 66.6892 400.649 69.4535 397.046 73.0817C393.444 76.5371 390.613 80.6836 388.555 85.5211C386.496 90.3587 385.467 95.5418 385.467 101.07V121.803C385.467 128.023 386.496 133.724 388.555 138.907C390.613 144.09 393.444 148.496 397.046 152.124C400.649 155.752 405.023 158.603 410.17 160.676C415.316 162.749 420.977 163.786 427.153 163.786Z" fill="white"/>
<path d="M559.734 184C550.985 184 542.665 182.618 534.774 179.854C526.882 177.089 519.935 172.856 513.931 167.155C507.926 161.281 503.123 153.938 499.52 145.127C495.918 136.316 494.117 125.949 494.117 114.028V108.845C494.117 97.4423 495.832 87.5944 499.263 79.3014C502.694 70.8357 507.24 63.8385 512.901 58.3099C518.734 52.6085 525.424 48.3756 532.972 45.6113C540.692 42.847 548.755 41.4648 557.16 41.4648C577.231 41.4648 592.756 46.9934 603.736 58.0507C614.715 69.108 620.204 84.7437 620.204 104.958V119.47H516.761C516.761 127.591 518.048 134.415 520.621 139.944C523.194 145.472 526.539 149.964 530.656 153.42C534.773 156.875 539.32 159.38 544.294 160.935C549.441 162.49 554.587 163.268 559.734 163.268C570.026 163.268 577.918 161.54 583.407 158.085C589.068 154.629 593.1 149.878 595.501 143.831H617.631C616.258 150.396 613.771 156.184 610.169 161.194C606.738 166.205 602.449 170.438 597.303 173.893C592.328 177.176 586.581 179.681 580.062 181.408C573.715 183.136 566.939 184 559.734 184ZM558.447 62.1972C553.129 62.1972 547.983 62.9747 543.008 64.5296C538.033 65.9117 533.573 68.2441 529.627 71.5268C525.853 74.6366 522.765 78.6103 520.363 83.4479C517.962 88.2855 516.761 94.0732 516.761 100.811H598.846C598.675 93.7277 597.474 87.7671 595.244 82.9296C593.185 77.9193 590.355 73.9455 586.752 71.0085C583.15 67.8986 578.861 65.6526 573.886 64.2704C569.083 62.8883 563.937 62.1972 558.447 62.1972Z" fill="white"/>
<path d="M634.377 44.0563H655.477V69.9718C658.393 61.8516 663.197 55.1136 669.887 49.7578C676.749 44.2291 685.069 41.4648 694.847 41.4648C698.278 41.4648 701.023 41.6376 703.082 41.9831C705.312 42.3286 707.285 42.7606 709 43.2789V64.5296C706.77 63.6657 704.54 63.061 702.31 62.7155C700.251 62.37 697.335 62.1972 693.561 62.1972C688.414 62.1972 683.611 63.1474 679.151 65.0479C674.691 66.9484 670.831 69.6263 667.571 73.0817C664.312 76.3643 661.739 80.4244 659.852 85.262C657.965 90.0995 657.021 95.369 657.021 101.07V181.408H634.377V44.0563Z" fill="white"/>
</mask>
<g mask="url(#mask0_3067_16394)">
<g opacity="0.8" filter="url(#filter0_f_3067_16394)">
<circle cx="384" cy="62" r="644" fill="white"/>
</g>
</g>
<defs>
<filter id="filter0_f_3067_16394" x="-411" y="-733" width="1590" height="1590" filterUnits="userSpaceOnUse" color-interpolation-filters="sRGB">
<feFlood flood-opacity="0" result="BackgroundImageFix"/>
<feBlend mode="normal" in="SourceGraphic" in2="BackgroundImageFix" result="shape"/>
<feGaussianBlur stdDeviation="75.5" result="effect1_foregroundBlur_3067_16394"/>
</filter>
</defs>
</svg>

<svg id="Layer_1" data-name="Layer 1" xmlns="http://www.w3.org/2000/svg" viewBox="0 0 709 184"><defs><style>.cls-1{fill:#fff;}</style></defs><path class="cls-1" d="M0,0H25.73L62.79,142.54,105,0H126.6l43,142.54L206.89,0h24.7L183.21,181.41H159L115.28,38.87,72.56,181.41H48.38Z"/><path class="cls-1" d="M288.18,184a74.8,74.8,0,0,1-25-4.15,57.34,57.34,0,0,1-20.84-12.7,64.27,64.27,0,0,1-14.41-22q-5.41-13.22-5.41-31.1v-5.18q0-17.11,5.15-29.55a60.83,60.83,0,0,1,13.64-21,56,56,0,0,1,20.07-12.7,71.31,71.31,0,0,1,24.19-4.15q30.11,0,46.57,16.59T348.65,105v14.51H245.21q0,12.18,3.86,20.47a38.5,38.5,0,0,0,10,13.48,39.18,39.18,0,0,0,13.64,7.51,53,53,0,0,0,15.44,2.34q15.44,0,23.67-5.18A28.8,28.8,0,0,0,324,143.83h22.13a45.15,45.15,0,0,1-7.47,17.36,47.4,47.4,0,0,1-12.86,12.7,58,58,0,0,1-17.24,7.52A77,77,0,0,1,288.18,184ZM286.89,62.2a51.36,51.36,0,0,0-15.44,2.33,35.52,35.52,0,0,0-22.64,18.92,38.69,38.69,0,0,0-3.6,17.36h82.08q-.26-10.62-3.6-17.88A29.49,29.49,0,0,0,315.2,71a32.77,32.77,0,0,0-12.87-6.74A55.67,55.67,0,0,0,286.89,62.2Z"/><path class="cls-1" d="M432.3,184q-17.51,0-30.36-7.77-12.87-8-18-20.74v25.92h-21.1V0h22.65V68.68a44.91,44.91,0,0,1,18-20q12.34-7.26,28.82-7.26,25.47,0,40.91,17.11,15.71,16.84,15.7,50.28V114q0,17.63-4.12,30.84a62.42,62.42,0,0,1-11.58,21.77,48.17,48.17,0,0,1-18,13A57.58,57.58,0,0,1,432.3,184Zm-5.15-20.21a38.58,38.58,0,0,0,15.44-3.11,35.28,35.28,0,0,0,12.35-9.59,41.86,41.86,0,0,0,8.24-15.55A68.4,68.4,0,0,0,466.27,114v-5.18a60.09,60.09,0,0,0-3.09-20,39.68,39.68,0,0,0-8.24-14.77,32.52,32.52,0,0,0-12.35-9.33,38.58,38.58,0,0,0-15.44-3.11,45.13,45.13,0,0,0-17,3.11,35.47,35.47,0,0,0-13.12,8.29,37.14,37.14,0,0,0-8.5,12.44,39.45,39.45,0,0,0-3.08,15.55V121.8a46.17,46.17,0,0,0,3.08,17.11,37.54,37.54,0,0,0,21.62,21.77A45.13,45.13,0,0,0,427.15,163.79Z"/><path class="cls-1" d="M559.73,184a74.8,74.8,0,0,1-25-4.15,57.34,57.34,0,0,1-20.84-12.7,64.41,64.41,0,0,1-14.41-22q-5.4-13.22-5.4-31.1v-5.18q0-17.11,5.14-29.55a60.83,60.83,0,0,1,13.64-21A56,56,0,0,1,533,45.61a71.35,71.35,0,0,1,24.19-4.15q30.11,0,46.58,16.59T620.2,105v14.51H516.76q0,12.18,3.86,20.47a38.4,38.4,0,0,0,10,13.48,39.05,39.05,0,0,0,13.63,7.51,53,53,0,0,0,15.44,2.34q15.45,0,23.68-5.18a28.78,28.78,0,0,0,12.09-14.26h22.13a45.14,45.14,0,0,1-7.46,17.36,47.29,47.29,0,0,1-12.87,12.7,57.86,57.86,0,0,1-17.24,7.52A77,77,0,0,1,559.73,184ZM558.45,62.2A51.26,51.26,0,0,0,543,64.53a35.36,35.36,0,0,0-13.38,7,35.84,35.84,0,0,0-9.27,11.92,38.69,38.69,0,0,0-3.6,17.36h82.09q-.27-10.62-3.61-17.88A29.49,29.49,0,0,0,586.75,71a32.8,32.8,0,0,0-12.86-6.74A55.72,55.72,0,0,0,558.45,62.2Z"/><path class="cls-1" d="M634.38,44.06h21.1V70a44.7,44.7,0,0,1,14.41-20.21q10.29-8.3,25-8.3a52.53,52.53,0,0,1,8.23.52,44.37,44.37,0,0,1,5.92,1.3V64.53a32,32,0,0,0-6.69-1.81,55.63,55.63,0,0,0-8.75-.52,36.37,36.37,0,0,0-14.41,2.85,34.18,34.18,0,0,0-11.58,8,35.13,35.13,0,0,0-7.72,12.18A43.3,43.3,0,0,0,657,101.07v80.34H634.38Z"/></svg>
